X: 15
T:Little Whare
M:6/8
L:1/8
Q:180
C:Paul Bond
K:D
T:Capo 2
&quot;C&quot;d2B A2B|&quot;Am&quot;dd2f2f|&quot;Dm&quot;e2AA2A|&quot;G&quot;A3-A2A|
&quot;C&quot;d2B A2B|&quot;Am&quot;dd2f2f|&quot;Dm&quot;e2dc2d|&quot;G&quot;e3- e2f|!
&quot;F&quot;g2ab2g|&quot;C&quot;fg a-a2f|&quot;Dm&quot;e2dc2d|&quot;G&quot;e3A2A|
&quot;C&quot;d2B A2B|&quot;Am&quot;dd2f2f|&quot;Dm&quot;e2B &quot;G&quot;c2A|&quot;C&quot;d3-d2A:||
